X: 18861
T: In Dulci Jubilo
R: hornpipe
M: 4/4
K: Dmajor
defg abaa|defg abaa|abag f2d2|eefe defg|
abag f2d2|eefe de (3fed|B2c2d2 aa/g/|f2e2d4:|

